X:1567
T:I'm Waiting For You
R:hornpipe
B:O'Neill's 1567
Z:Transcribed by Michael Hogan
M:2/4
L:1/16
K:G
D2|G3B AGED|GBdg e3f|agfge dBAc|BGAF GFED|
G3B AGED|GBdg e3f|agfge dBge|dBAB G2 :|
|: z2|g2dg edgd|eaab agef|g2dg edgd|egfa g2ga|
3bc'b bg 3bc'b af|3gag ge d2ef|agfge dBge|dBAB G2 :||
